svg/l/LK.svg

<svg width="32" height="24" viewBox="0 0 32 24" fill="none" xmlns="http://www.w3.org/2000/svg">
<mask id="mask0" mask-type="alpha" maskUnits="userSpaceOnUse" x="0" y="0" width="32" height="24">
<rect width="32" height="24" fill="white"/>
</mask>
<g mask="url(#mask0)">
<path fill-rule="evenodd" clip-rule="evenodd" d="M0 0H32V24H0V0Z" fill="#FECA00"/>
<rect x="2" y="2" width="6" height="20" fill="#1F8A6E"/>
<rect x="8" y="2" width="6" height="20" fill="#F56800"/>
<rect x="14" y="2" width="16" height="20" fill="#B01D00"/>
<rect x="12" y="2" width="2" height="20" fill="#E8AA00"/>
<path fill-rule="evenodd" clip-rule="evenodd" d="M17.1005 6.17346C17.1005 6.17346 15.8268 6.16976 15.8268 8.38757V11.6397C15.8268 11.6397 15.2205 11.7478 15.2205 12.1245C15.2205 12.5011 15.349 12.8307 15.5879 12.8307C15.8268 12.8307 16.0657 13.9356 15.8268 13.9356C15.5879 13.9356 15.349 14.4097 15.5879 14.4097C15.645 14.4097 15.6885 14.402 15.7216 14.3961C15.7564 14.3899 15.7797 14.3857 15.7953 14.3948C15.8268 14.4132 15.8268 14.4857 15.8268 14.7049C15.8268 15.1354 15.5879 15.3095 15.5879 15.3095C15.5879 15.3095 15.3629 15.2468 15.3629 15.5001C15.3629 15.7535 15.5879 15.8177 15.5879 15.8177C15.5879 15.8177 15.7167 15.8733 15.4686 15.9933C15.2205 16.1133 15.2205 16.1713 15.2205 16.1713H15.8268L16.1305 16.7269L16.4202 16.1713H17.0187C17.0187 16.1713 16.7173 15.9785 16.682 15.9381C16.6467 15.8977 16.6039 15.8387 16.682 15.7712C16.7048 15.7515 16.7381 15.7364 16.7739 15.7202C16.8609 15.681 16.9624 15.6351 16.9624 15.5001C16.9624 15.3095 16.5803 15.3095 16.5803 15.3095C16.5803 15.3095 16.3472 14.8887 16.4202 14.7049C16.4406 14.6535 16.4522 14.6078 16.4622 14.5685C16.4879 14.4675 16.5026 14.4097 16.628 14.4097C16.802 14.4097 16.9018 14.1901 16.682 13.9356C16.682 13.9356 16.934 14.2065 16.8599 14.5581C16.7859 14.9096 16.9369 15.0688 17.0187 15.0688C17.1005 15.0688 17.2306 14.9479 17.2306 14.9479C17.2306 14.9479 17.9101 15.5554 18.2087 15.5554C18.5073 15.5554 18.9354 15.0688 18.9354 15.0688L19.5501 15.414C19.5501 15.414 20 16.0443 19.9337 16.4776C19.8674 16.9109 19.6109 17.1523 19.3091 17.0853C19.0073 17.0183 18.5164 17.1558 18.4791 17.3427C18.4734 17.371 18.465 17.4055 18.4558 17.4433C18.4041 17.6554 18.3267 17.973 18.5633 17.8946C18.8421 17.8023 18.8967 17.7315 18.8967 17.7315C18.8967 17.7315 18.86 17.8946 19.0846 17.8946C19.3091 17.8946 19.374 17.7315 19.374 17.7315C19.374 17.7315 19.6068 17.8946 19.7703 17.8946C19.9337 17.8946 20.1168 17.7689 20.1168 17.7689C20.1168 17.7689 20.2373 17.9557 20.5038 17.8946C20.7703 17.8336 20.9718 17.138 20.7779 16.9822C20.7779 16.9822 21.4209 16.8889 21.5859 16.33C21.5859 16.33 20.9639 16.3208 21.028 15.9381C21.0921 15.5554 21.4206 15.3095 21.4206 15.3095C21.4206 15.3095 22.3663 14.8517 22.7733 14.7049C23.1802 14.5581 23.8565 14.4097 24.0241 14.4097C24.0923 14.4097 24.141 14.5689 24.207 14.7847C24.3032 15.0992 24.4362 15.5339 24.7198 15.7712C25.1982 16.1713 24.872 17.0853 24.872 17.0853C24.872 17.0853 23.8076 17.1926 23.8076 17.4808C23.8076 17.7689 23.8247 17.8946 24.0241 17.8946C24.2234 17.8946 24.2194 17.7315 24.2194 17.7315C24.2194 17.7315 24.3377 17.8946 24.5288 17.8946C24.7198 17.8946 24.872 17.7315 24.872 17.7315C24.872 17.7315 24.9228 17.8946 25.1731 17.8946C25.4234 17.8946 25.4216 17.7315 25.4216 17.7315C25.4216 17.7315 25.4667 17.8946 25.6873 17.8946C25.9079 17.8946 26.3607 17.7315 26.3607 17.7315C26.3607 17.7315 26.4317 17.8946 26.6608 17.8946C26.8899 17.8946 26.8953 17.7315 26.8953 17.7315C26.8953 17.7315 27.0176 17.8946 27.2161 17.8946C27.4145 17.8946 27.5308 17.7315 27.5308 17.7315C27.5308 17.7315 27.8161 17.8946 28.0129 17.8946C28.2097 17.8946 28.139 17.6001 28.0129 17.3427C27.981 17.2776 27.9441 17.222 27.9103 17.1712C27.8106 17.0211 27.7388 16.9131 27.9077 16.7269C27.9555 16.6741 28.0103 16.6208 28.0652 16.5674L28.0652 16.5674C28.2698 16.3685 28.4754 16.1685 28.3248 15.9933C28.2801 15.9413 28.2277 15.905 28.175 15.8684C28.0026 15.7486 27.8271 15.6267 27.9077 14.9479C27.956 14.5414 28.0477 14.211 28.1329 13.9042L28.1329 13.9041C28.2334 13.5421 28.3248 13.213 28.3248 12.8307C28.3248 12.1245 27.9077 11.3169 27.9077 11.3169C27.9077 11.3169 28.4693 10.925 28.4693 10.1277C28.4693 9.33042 27.2161 9.24347 27.2161 9.24347C27.2161 9.24347 25.9712 9.56389 25.4216 9.40368C25.2976 9.36753 25.1938 9.34153 25.1074 9.31989L25.1074 9.31989C24.8111 9.24566 24.7198 9.2228 24.7198 9.01739C24.7198 8.75211 24.3198 9.24347 24.3198 9.24347C24.3198 9.24347 24.0062 9.11761 24.2194 8.85718C24.4326 8.59676 24.5288 8.49466 24.5288 8.49466C24.5288 8.49466 24.341 8.28048 24.0241 8.38757C23.7072 8.49466 23.6507 8.67212 23.6507 8.67212C23.6507 8.67212 23.2894 8.30227 23.5145 8.03373C23.7396 7.76519 24.0241 8.03373 24.0241 8.03373C24.0241 8.03373 24.3477 8.20271 24.3738 7.98091C24.3998 7.75911 24.3738 7.58223 24.3738 7.58223C24.3738 7.58223 25.1858 7.81512 24.9563 8.17735C24.7269 8.53958 24.872 8.67212 24.872 8.67212C24.872 8.67212 25.4301 8.70646 25.5309 8.32148C25.5691 8.17587 25.5628 8.03467 25.5349 7.9237C25.6957 7.99944 25.8778 8.08918 25.8269 8.23807C25.7336 8.51161 25.5309 8.85718 25.5309 8.85718C25.5309 8.85718 26.0886 8.82459 26.2548 8.38757C26.421 7.95055 26.3607 8.49466 26.3607 8.49466C26.3607 8.49466 26.5745 8.48705 26.8953 8.67212C27.2161 8.85718 26.8953 8.38757 26.8953 8.38757C26.8953 8.38757 27.5611 9.21318 28.1909 9.11529C28.8207 9.01739 28.7858 8.49466 28.7858 8.49466C28.7858 8.49466 28.6366 8.23807 28.3248 8.23807C28.0129 8.23807 28.1909 8.49466 28.1909 8.49466C28.1909 8.49466 28.495 8.66784 28.0129 8.49466C27.8733 8.4445 27.6649 8.28258 27.4064 8.08167C26.7723 7.58891 25.8363 6.86159 24.872 6.97298C23.5145 7.12978 23.0408 7.73643 23.0408 7.73643V7.2313C23.0408 7.2313 22.8127 7.58223 22.6 7.58223C22.3874 7.58223 21.7968 7.2313 21.7968 7.2313L21.4206 7.58223C21.4206 7.58223 21.2781 7.2313 21.028 7.2313C20.7779 7.2313 20.7779 7.58223 20.7779 7.58223C20.7779 7.58223 20.4633 7.42753 20.1168 7.42753C19.9748 7.42753 19.8541 7.37568 19.761 7.33571C19.6268 7.27812 19.5501 7.24517 19.5501 7.42753C19.5501 7.46453 19.551 7.49986 19.5518 7.53346V7.53348C19.5579 7.78036 19.5616 7.93442 19.2024 7.98091C18.7943 8.03373 18.4791 8.03373 18.4791 8.03373C18.4791 8.03373 18.2348 7.73643 18.0447 7.73643C17.8546 7.73643 17.6344 7.96713 17.6344 8.17735C17.6344 8.38757 17.8806 8.9871 18.0447 9.11529C18.0879 9.14905 18.0799 9.14536 18.0446 9.12912C17.946 9.08371 17.6344 8.94018 17.6344 9.24347C17.6344 9.45257 17.6866 9.50484 17.7247 9.54302C17.7617 9.58002 17.7854 9.60378 17.7356 9.74418C17.7149 9.8026 17.6864 9.87018 17.6567 9.9407C17.5414 10.2145 17.4074 10.5328 17.6344 10.5328C17.757 10.5328 17.8729 10.5058 17.9555 10.4866L17.9555 10.4866C18.0652 10.4611 18.1159 10.4493 18.0447 10.5328C18.0163 10.5661 17.9781 10.6062 17.9396 10.6467C17.8087 10.784 17.6741 10.9254 17.9071 10.8181C18.0296 10.7617 18.133 10.6799 18.2183 10.6125C18.3431 10.5138 18.429 10.4459 18.4791 10.5328C18.5107 10.5878 18.4853 10.6613 18.4636 10.7243C18.4275 10.8291 18.4013 10.9048 18.664 10.8181C18.7561 10.7877 18.81 10.764 18.84 10.747C18.8413 10.764 18.8553 10.7878 18.8967 10.8181C18.9848 10.8828 18.9679 10.9441 18.955 10.991C18.9404 11.044 18.9309 11.0785 19.0846 11.0785C19.2316 11.0785 19.4392 10.9646 19.5622 10.897C19.6813 10.8316 19.7211 10.8097 19.5501 10.977C19.4423 11.0824 19.2864 11.1526 19.1133 11.2306C18.7281 11.4042 18.2579 11.6161 18.0447 12.3387C17.7568 13.3142 17.8858 13.5152 17.9049 13.5382L17.0187 12.568C17.0187 12.568 17.2306 12.4024 17.2306 12.1245C17.2306 11.8466 16.682 11.6397 16.682 11.6397C16.682 11.6397 16.7012 8.18199 16.8599 7.42753C17.0187 6.67306 17.1005 6.17346 17.1005 6.17346ZM17.9049 13.5382L17.9071 13.5406C17.9071 13.5406 17.9067 13.5403 17.9061 13.5396C17.9058 13.5392 17.9054 13.5388 17.9049 13.5382ZM18.8676 10.7143C18.8576 10.7143 18.8384 10.7252 18.84 10.747C18.8784 10.7252 18.8776 10.7143 18.8676 10.7143ZM25.5349 7.9237L25.5231 7.91817C25.3934 7.85714 25.2817 7.80464 25.3246 7.73643C25.385 7.64055 25.489 7.74125 25.5349 7.9237ZM26.1212 15.4056C26.1212 15.4056 25.7013 15.8175 25.9679 15.908C26.0488 15.9355 26.1472 15.9508 26.2386 15.965C26.4487 15.9977 26.6223 16.0247 26.4631 16.1802C26.2346 16.4034 26.0412 16.705 26.0412 16.9796C26.0412 17.2543 26.0477 17.4861 26.1212 17.3702C26.1616 17.3066 26.3274 17.24 26.5061 17.1682C26.6529 17.1092 26.8083 17.0467 26.9099 16.9796C27.1018 16.8528 27.099 16.7156 27.0941 16.4691C27.0932 16.4265 27.0923 16.3806 27.0923 16.3309C27.0923 15.994 26.1212 15.4056 26.1212 15.4056ZM22.863 9.88958C22.9609 9.81179 22.9672 8.85162 22.9672 8.85162C22.9672 8.85162 23.3105 8.96593 23.3105 9.11592C23.3105 9.20933 23.2846 9.26276 23.2453 9.3434C23.2216 9.39225 23.193 9.45108 23.1623 9.53482C23.0869 9.74109 23.2922 9.87032 23.4829 9.99035C23.4974 9.99951 23.5119 10.0086 23.5261 10.0177C23.6554 10.1001 23.6917 9.92128 23.7197 9.78324C23.7353 9.70672 23.7483 9.64273 23.7732 9.64273C23.8429 9.64273 24.3633 9.7607 24.7549 9.95973C25.0967 10.1334 25.432 10.0481 26.2 9.85287C26.3122 9.82434 26.4336 9.79347 26.5657 9.7607C27.6015 9.50372 27.7375 9.88958 27.8437 10.1934C27.9499 10.4972 27.1457 10.9181 26.5657 10.9944C26.3108 11.0279 26.09 11.0173 25.8869 11.0074C25.6278 10.9949 25.3974 10.9838 25.1616 11.0676C24.7921 11.199 23.6365 11.1859 23.1854 11.1808C23.1231 11.1801 23.0743 11.1796 23.0428 11.1796C22.8357 11.1796 22.7966 11.1142 22.7179 10.983C22.698 10.9497 22.6754 10.9121 22.647 10.8703C22.5064 10.6638 22.677 10.5288 22.7875 10.5288C22.898 10.5288 22.863 10.2872 22.7875 10.1934C22.7119 10.0995 22.7652 9.96737 22.863 9.88958Z" fill="#FECA00"/>
<path fill-rule="evenodd" clip-rule="evenodd" d="M14.1712 2.12227V2.4833C14.1712 2.52776 14.152 2.5884 14.1305 2.65637C14.0624 2.87182 13.9709 3.16095 14.3932 3.24221C14.9487 3.34911 15.358 3.59204 15.4824 3.82138C15.5621 3.96835 15.5397 3.72345 15.5132 3.43539V3.43539C15.4984 3.27396 15.4824 3.09897 15.4824 2.97182C15.4824 2.61778 15.0858 1.92787 14.8048 2.12227C14.5238 2.31666 14.1712 2.12227 14.1712 2.12227ZM14.1712 21.5073V21.8683C14.1712 21.8683 14.5238 21.6739 14.8048 21.8683C15.0858 22.0627 15.4824 21.3728 15.4824 21.0187C15.4824 20.8916 15.4984 20.7166 15.5132 20.5552C15.5397 20.2671 15.5621 20.0222 15.4824 20.1692C15.358 20.3985 14.9487 20.6414 14.3932 20.7483C13.9709 20.8296 14.0624 21.1187 14.1305 21.3342C14.152 21.4022 14.1712 21.4628 14.1712 21.5073ZM29.8356 21.5073V21.8683C29.8356 21.8683 29.4831 21.6739 29.2021 21.8683C28.921 22.0627 28.5245 21.3728 28.5245 21.0187C28.5245 20.8916 28.5084 20.7166 28.4936 20.5552L28.4936 20.5552C28.4672 20.2671 28.4447 20.0222 28.5245 20.1692C28.6489 20.3985 29.0581 20.6414 29.6137 20.7483C30.036 20.8296 29.9445 21.1187 29.8763 21.3342C29.8548 21.4022 29.8356 21.4628 29.8356 21.5073ZM29.8356 2.4833V2.12227C29.8356 2.12227 29.4831 2.31666 29.2021 2.12227C28.921 1.92787 28.5245 2.61778 28.5245 2.97182C28.5245 3.09898 28.5084 3.27396 28.4936 3.43539C28.4672 3.72345 28.4447 3.96835 28.5245 3.82138C28.6489 3.59204 29.0581 3.34911 29.6137 3.24221C30.036 3.16095 29.9445 2.87182 29.8763 2.65637C29.8548 2.5884 29.8356 2.52776 29.8356 2.4833Z" fill="#FECA00"/>
</g>
</svg>

<svg width="32" height="24" fill="none" xmlns="http://www.w3.org/2000/svg">
  <mask id="a" maskUnits="userSpaceOnUse" x="0" y="0" width="32" height="24">
    <path fill="#fff" d="M0 0h32v24H0z"/>
  </mask>
  <g mask="url(#a)">
    <path fill-rule="evenodd" clip-rule="evenodd" d="M0 0h32v24H0V0z" fill="#FECA00"/>
    <path fill="#1F8A6E" d="M2 2h6v20H2z"/>
    <path fill="#F56800" d="M8 2h6v20H8z"/>
    <path fill="#B01D00" d="M14 2h16v20H14z"/>
    <path fill="#E8AA00" d="M12 2h2v20h-2z"/>
    <path fill-rule="evenodd" clip-rule="evenodd" d="M17.1 6.173s-1.273-.003-1.273 2.215v3.252s-.607.108-.607.484c0 .377.129.707.368.707s.478 1.105.239 1.105c-.24 0-.478.474-.24.474.058 0 .101-.008.135-.014s.058-.01.073-.001c.032.018.032.09.032.31 0 .43-.24.605-.24.605s-.224-.063-.224.19c0 .254.225.318.225.318s.129.055-.12.175c-.248.12-.248.178-.248.178h.607l.304.556.29-.556h.598s-.302-.192-.337-.233c-.035-.04-.078-.1 0-.167a.39.39 0 01.092-.05c.087-.04.188-.086.188-.22 0-.191-.382-.191-.382-.191s-.233-.421-.16-.605c.02-.052.032-.097.042-.136.026-.102.04-.16.166-.16.174 0 .274-.219.054-.473 0 0 .252.27.178.622-.074.352.077.51.159.51s.212-.12.212-.12.68.607.978.607c.298 0 .726-.486.726-.486l.615.345s.45.63.384 1.064c-.067.433-.323.674-.625.607-.302-.067-.793.07-.83.258l-.023.1c-.052.212-.13.53.107.452.28-.093.334-.163.334-.163s-.037.163.188.163c.224 0 .289-.163.289-.163s.233.163.396.163c.164 0 .347-.126.347-.126s.12.187.387.126c.266-.061.468-.757.274-.913 0 0 .643-.093.808-.652 0 0-.622-.01-.558-.392.064-.383.393-.628.393-.628s.945-.458 1.352-.605c.407-.147 1.084-.295 1.251-.295.068 0 .117.159.183.375.096.314.23.749.513.986.478.4.152 1.314.152 1.314s-1.064.108-1.064.396c0 .288.017.414.216.414.2 0 .195-.163.195-.163s.119.163.31.163c.19 0 .343-.163.343-.163s.05.163.301.163c.25 0 .249-.163.249-.163s.045.163.265.163c.22 0 .674-.163.674-.163s.07.163.3.163c.229 0 .234-.163.234-.163s.123.163.321.163a.417.417 0 00.315-.163s.285.163.482.163.126-.295 0-.552a1.483 1.483 0 00-.103-.172c-.1-.15-.171-.258-.002-.444.047-.053.102-.106.157-.16.205-.198.41-.398.26-.574a.754.754 0 00-.15-.125c-.172-.12-.348-.241-.267-.92a6.64 6.64 0 01.225-1.044c.1-.362.192-.691.192-1.073 0-.707-.417-1.514-.417-1.514s.561-.392.561-1.19c0-.797-1.253-.884-1.253-.884s-1.245.32-1.794.16a8.033 8.033 0 00-.315-.083c-.296-.074-.387-.097-.387-.303 0-.265-.4.226-.4.226s-.314-.125-.1-.386c.213-.26.309-.362.309-.362s-.188-.214-.505-.107-.373.284-.373.284-.362-.37-.136-.638c.225-.269.51 0 .51 0s.323.169.349-.053c.026-.222 0-.399 0-.399s.812.233.582.595c-.23.363-.084.495-.084.495s.558.034.659-.35a.811.811 0 00.004-.398c.16.075.343.165.292.314-.093.274-.296.62-.296.62s.558-.033.724-.47c.166-.437.106.107.106.107s.213-.008.534.177c.321.185 0-.284 0-.284s.666.825 1.296.727c.63-.098.595-.62.595-.62s-.15-.257-.461-.257c-.312 0-.134.257-.134.257s.304.173-.178 0c-.14-.05-.348-.212-.607-.413-.634-.493-1.57-1.22-2.534-1.109-1.357.157-1.831.763-1.831.763v-.505s-.228.351-.441.351-.803-.35-.803-.35l-.376.35s-.143-.35-.393-.35-.25.35-.25.35-.315-.154-.661-.154a.888.888 0 01-.356-.092c-.134-.058-.21-.09-.21.092v.105c.007.247.01.401-.349.448-.408.053-.723.053-.723.053s-.244-.298-.434-.298-.41.231-.41.441.246.81.41.938c.043.034.035.03 0 .014-.099-.045-.41-.189-.41.114 0 .21.052.262.09.3.037.037.06.06.01.201-.02.059-.049.126-.078.197-.116.273-.25.592-.023.592.123 0 .239-.027.322-.046.11-.026.16-.038.089.046a3.063 3.063 0 01-.105.114c-.131.137-.266.278-.033.171.123-.056.226-.138.311-.205.125-.1.211-.167.261-.08.032.055.006.128-.015.191-.037.105-.063.18.2.094.092-.03.146-.054.176-.071.001.017.015.04.057.071.088.065.07.126.058.173-.015.053-.024.088.13.088.147 0 .354-.114.477-.182.12-.065.16-.087-.012.08-.108.105-.264.176-.437.254-.385.173-.855.385-1.068 1.108-.288.975-.16 1.176-.14 1.2l-.886-.971s.212-.166.212-.444c0-.277-.549-.484-.549-.484s.02-3.458.178-4.212c.159-.755.24-1.255.24-1.255zm.805 7.365l.002.003v-.001l-.002-.002zm.963-2.824a.03.03 0 00-.028.033c.038-.022.038-.033.028-.033zm6.667-2.79l-.012-.006c-.13-.06-.241-.113-.198-.182.06-.095.164.005.21.188zm.586 7.482s-.42.412-.153.502c.08.027.18.043.27.057.21.033.384.06.225.215-.228.223-.422.525-.422.8 0 .274.007.506.08.39.04-.063.206-.13.385-.202.147-.059.302-.121.404-.188.192-.127.189-.264.184-.51l-.002-.139c0-.337-.97-.925-.97-.925zM22.863 9.89c.098-.078.104-1.038.104-1.038s.344.114.344.264a.46.46 0 01-.066.227c-.023.05-.052.108-.083.192-.075.206.13.335.32.455l.044.028c.13.082.166-.097.194-.235.015-.076.028-.14.053-.14.07 0 .59.118.982.317.342.173.677.088 1.445-.107.112-.029.234-.06.366-.092 1.036-.257 1.172.129 1.278.432.106.304-.698.725-1.278.801a3.629 3.629 0 01-.68.014c-.258-.013-.489-.024-.724.06-.37.131-1.525.118-1.977.113l-.142-.001c-.207 0-.246-.066-.325-.197a2.205 2.205 0 00-.071-.113c-.14-.206.03-.341.14-.341.111 0 .076-.242 0-.336-.075-.093-.022-.226.076-.303zm-8.692-7.768v.361c0 .045-.019.105-.04.173-.069.216-.16.505.262.586.556.107.965.35 1.09.58.08.146.057-.099.03-.387a5.742 5.742 0 01-.03-.463c0-.354-.397-1.044-.678-.85-.281.195-.634 0-.634 0zm0 19.385v.361s.353-.194.634 0c.28.195.677-.495.677-.85 0-.126.016-.301.031-.463.027-.288.05-.533-.03-.386-.125.23-.534.473-1.09.58-.422.08-.33.37-.263.585a.657.657 0 01.041.173zm15.665 0v.361s-.353-.194-.634 0c-.281.195-.678-.495-.678-.85 0-.126-.016-.301-.03-.463-.027-.288-.05-.533.03-.386.125.23.534.473 1.09.58.422.08.33.37.262.585-.021.068-.04.129-.04.173zm0-19.024v-.36s-.353.194-.634 0c-.281-.195-.678.495-.678.849 0 .127-.016.302-.03.463-.027.288-.05.533.03.386.125-.229.534-.472 1.09-.579.422-.081.33-.37.262-.586-.021-.068-.04-.128-.04-.173z" fill="#FECA00"/>
  </g>
</svg>
